X:1
T:Pull the Knife and Stick It Again
R:jig
M:6/8
L:1/8
K:Edor
~E3 GFE|DB,E DB,D|~E3 GFE|ABG AFD|
~E3 GFE|DB,E DEF|G2E FED|1 B,ED E2D:|2 B,ED E2e|]
edB BAF|EDB, ~D3|edB BAF|ABc def|
edB BAF|EDB, DEF|G2E FED|1 B,ED E2e:|2 B,ED E2D|]
</abc>
